docs/assets/images/plane.svg

<svg xmlns="http://www.w3.org/2000/svg" width="68" height="68" fill="none" viewBox="0 0 68 68"><path fill="#FEE45E" d="M33.6221 39.562L27.5205 42.3266L28.729 46.4862L33.9062 45.6594L33.6221 39.562Z"/><path fill="#002140" d="M28.5285 44.7318C28.6959 43.58 28.0576 42.5338 27.1028 42.3951C26.148 42.2563 25.2383 43.0775 25.0709 44.2292C24.9035 45.381 25.5418 46.4272 26.4966 46.566C27.4513 46.7048 28.3611 45.8836 28.5285 44.7318Z"/><path stroke="#002140" stroke-linecap="round" stroke-linejoin="round" stroke-width=".999" d="M28.4113 44.5719C28.5787 43.4201 27.9404 42.3739 26.9856 42.2351C26.0308 42.0964 25.1211 42.9176 24.9537 44.0693C24.7863 45.2211 25.4246 46.2673 26.3794 46.4061C27.3342 46.5448 28.2439 45.7237 28.4113 44.5719Z"/><path stroke="#002140" stroke-linecap="round" stroke-linejoin="round" stroke-width=".999" d="M26.6669 42.1741L31.9205 40.5034"/><path fill="#FEE45E" d="M32.2641 22.4186C32.3065 22.5374 33.9178 25.5776 33.9178 25.5776L37.6831 24.3649L36.1778 20.7734L32.2641 22.4186Z"/><path fill="#FEE45E" d="M32.6795 38.1625C32.6795 38.1625 23.385 41.0967 20.1413 39.4388C16.8975 37.7809 16.3675 35.9618 16.3675 35.9618L23.2705 29.8305L53.024 19.2851C53.024 19.2851 58.7143 18.0088 62.0429 20.43C65.3757 22.8511 63.4888 25.2299 60.2366 26.9005C56.9843 28.5669 46.7485 32.5527 46.7485 32.5527L32.6753 38.1625H32.6795Z"/><path fill="#FED607" d="M36.6231 24.8355L31.1278 16.8343L31.7384 15.8929L34.4436 14.9771L45.519 21.367L36.6231 24.8355Z"/><path fill="#FED607" d="M22.8472 30.0128C22.8472 30.0128 19.9681 34.3081 17.7929 35.9363C15.6177 37.5646 15.3505 37.2084 15.3505 37.2084L3.60944 29.169L7.5613 26.769L22.8514 30.0086L22.8472 30.0128Z"/><path fill="#FED607" d="M21.9391 37.1238L13.5138 43.9039L10.0792 44.1201L15.354 37.2001C15.354 37.2001 19.8783 35.4786 21.9391 37.1238Z"/><path fill="#FED607" d="M33.045 38.099C33.045 38.099 39.5961 30.8483 47.5974 31.9253L47.2963 32.6334L29.3985 51.8245L24.7639 52.1044L33.045 38.0948V38.099Z"/><path fill="#002140" d="M55.0551 26.0737C55.0551 26.0737 53.7364 25.3275 53.3039 24.7508C52.8714 24.1741 51.9089 22.6095 51.9089 22.6095L53.5838 21.7021C53.5838 21.7021 56.5816 19.8788 56.5137 19.5142C56.4459 19.1495 56.9038 19.0181 56.9038 19.0181C56.9038 19.0181 61.0168 19.8873 61.356 20.2562C61.6995 20.6209 60.3893 22.5713 60.3893 22.5713C60.3893 22.5713 55.8395 26.1119 55.0509 26.078L55.0551 26.0737Z"/><path stroke="#002140" stroke-linecap="round" stroke-linejoin="round" stroke-width=".999" d="M47.8512 32.2981L29.3937 51.7987C29.3385 51.8581 29.2622 51.8963 29.1817 51.909L25.3485 52.456C25.0517 52.4984 24.8355 52.1803 24.9881 51.9217L33.3667 37.399C33.3837 37.3694 33.4049 37.3439 33.4261 37.3227C33.9561 36.8096 40.2952 30.8479 47.6308 31.696C47.9276 31.7299 48.0548 32.0861 47.8512 32.3023V32.2981Z"/><path stroke="#002140" stroke-linecap="round" stroke-linejoin="round" stroke-width=".999" d="M22.9271 30.0212C22.9271 30.0212 50.4418 20.0525 51.752 19.5522C53.0622 19.0518 60.6479 17.5338 63.7645 21.9861C65.7743 25.6029 54.2749 29.8389 54.2749 29.8389L48.2326 31.9335"/><path stroke="#002140" stroke-linecap="round" stroke-linejoin="round" stroke-width=".999" d="M36.7457 24.8145L31.1826 17.3729C30.8137 16.8768 31.0215 16.1645 31.6024 15.9525L34.0362 15.0578C34.2991 14.9603 34.5917 14.9899 34.8334 15.1341L45.5611 21.6174"/><path stroke="#002140" stroke-linecap="round" stroke-linejoin="round" stroke-width=".999" d="M33.0315 37.6196C33.0315 37.6196 25.7638 41.5969 19.5731 39.2394"/><path stroke="#002140" stroke-linecap="round" stroke-linejoin="round" stroke-width=".999" d="M15.6299 37.2041C15.6299 37.2041 18.7804 34.8466 22.0581 37.1023C21.7952 37.3186 13.8321 43.8739 13.8321 43.8739L9.58765 44.4888L15.6299 37.2041Z"/><path stroke="#002140" stroke-linecap="round" stroke-linejoin="round" stroke-width=".999" d="M22.9271 30.0215C22.9271 30.0215 22.1596 32.8794 15.634 37.2044"/><path stroke="#002140" stroke-linecap="round" stroke-linejoin="round" stroke-width=".999" d="M15.63 37.2043L3.50732 29.3133L7.24718 26.7268L22.9274 30.0214"/><path fill="#002140" d="M33.5485 25.1085C33.6887 23.9531 33.0259 22.9222 32.0682 22.806C31.1104 22.6897 30.2202 23.5321 30.08 24.6875C29.9398 25.8429 30.6026 26.8738 31.5603 26.99C32.5181 27.1063 33.4083 26.2639 33.5485 25.1085Z"/><path stroke="#002140" stroke-linecap="round" stroke-linejoin="round" stroke-width=".999" d="M33.2025 24.9522C33.3427 23.7968 32.6799 22.766 31.7221 22.6497C30.7644 22.5335 29.8742 23.3759 29.734 24.5313C29.5938 25.6867 30.2565 26.7175 31.2143 26.8338C32.1721 26.95 33.0622 26.1076 33.2025 24.9522Z"/><path stroke="#002140" stroke-linecap="round" stroke-linejoin="round" stroke-width=".999" d="M30.7128 22.8937L34.088 21.5962"/><path stroke="#002140" stroke-linecap="round" stroke-linejoin="round" stroke-width=".999" d="M56.7651 18.9165C56.7651 18.9165 56.587 19.879 55.3191 20.6889C54.3057 21.3334 52.563 22.1263 51.9058 22.4189C51.7701 22.4783 51.7277 22.6479 51.8167 22.7624L54.2676 26.04C54.3269 26.1206 54.4287 26.1545 54.5262 26.1206C55.5312 25.7644 61.0222 23.6613 61.4377 20.2691"/><path fill="#002140" d="M44.8287 27.4985C44.8287 27.4985 44.7651 27.1593 44.9856 26.8158C45.2061 26.4723 46.0456 26.3833 46.0456 26.3833L46.5799 27.1635L46.9488 28.0667C46.9488 28.0667 46.6435 28.3465 46.3976 28.4271C46.1516 28.5076 45.7573 28.3932 45.7573 28.3932L44.8287 27.4942V27.4985Z"/><path stroke="#002140" stroke-linecap="round" stroke-linejoin="round" stroke-width=".999" d="M45.2095 26.4765L45.5487 26.3239C45.8582 26.1839 46.2229 26.2857 46.4137 26.5656L47.0031 27.4178C47.2575 27.7867 47.1049 28.2998 46.6893 28.4694L46.3543 28.6051C46.0491 28.7281 45.7014 28.6263 45.5148 28.3592L44.9254 27.5196C44.671 27.1592 44.8109 26.6546 45.2137 26.4723L45.2095 26.4765Z"/><path fill="#002140" d="M40.4896 29.0378C40.4896 29.0378 40.426 28.6986 40.6465 28.3551C40.867 28.0117 41.7065 27.9226 41.7065 27.9226L42.2408 28.7028L42.6097 29.606C42.6097 29.606 42.3044 29.8858 42.0585 29.9664C41.8125 30.0469 41.4182 29.9325 41.4182 29.9325L40.4896 29.0335V29.0378Z"/><path stroke="#002140" stroke-linecap="round" stroke-linejoin="round" stroke-width=".999" d="M40.8673 28.0158L41.2065 27.8632C41.5161 27.7233 41.8807 27.825 42.0715 28.1049L42.6609 28.9571C42.9153 29.326 42.7627 29.8391 42.3472 30.0087L42.0122 30.1444C41.7069 30.2674 41.3592 30.1656 41.1726 29.8985L40.5832 29.0589C40.3288 28.6985 40.4688 28.1939 40.8716 28.0116L40.8673 28.0158Z"/><path fill="#002140" d="M36.504 30.496C36.504 30.496 36.4404 30.1568 36.6609 29.8134C36.8814 29.4699 37.7209 29.3809 37.7209 29.3809L38.2552 30.1611L38.6241 31.0642C38.6241 31.0642 38.3188 31.3441 38.0729 31.4246C37.8269 31.5052 37.4326 31.3907 37.4326 31.3907L36.504 30.4918V30.496Z"/><path stroke="#002140" stroke-linecap="round" stroke-linejoin="round" stroke-width=".999" d="M36.8819 29.4699L37.2211 29.3173C37.5306 29.1774 37.8953 29.2791 38.0861 29.559L38.6755 30.4112C38.9299 30.7801 38.7772 31.2932 38.3617 31.4628L38.0267 31.5985C37.7214 31.7215 37.3737 31.6197 37.1872 31.3526L36.5978 30.513C36.3434 30.1526 36.4833 29.648 36.8861 29.4657L36.8819 29.4699Z"/><path fill="#002140" d="M32.6082 32.0695C32.6082 32.0695 32.5446 31.7303 32.7651 31.3868C32.9856 31.0434 33.8251 30.9543 33.8251 30.9543L34.3594 31.7345L34.7283 32.6377C34.7283 32.6377 34.423 32.9176 34.1771 32.9981C33.9311 33.0787 33.5368 32.9642 33.5368 32.9642L32.6082 32.0653V32.0695Z"/><path stroke="#002140" stroke-linecap="round" stroke-linejoin="round" stroke-width=".999" d="M32.9852 31.0476L33.3245 30.8949C33.634 30.755 33.9987 30.8568 34.1895 31.1366L34.7789 31.9889C35.0333 32.3578 34.8806 32.8708 34.4651 33.0405L34.1301 33.1761C33.8248 33.2991 33.4771 33.1973 33.2905 32.9302L32.7012 32.0906C32.4467 31.7302 32.5867 31.2257 32.9895 31.0433L32.9852 31.0476Z"/><path fill="#002140" d="M28.8515 33.5876C28.8515 33.5876 28.7879 33.2484 29.0084 32.9049C29.2289 32.5615 30.0685 32.4724 30.0685 32.4724L30.6027 33.2526L30.9716 34.1558C30.9716 34.1558 30.6663 34.4356 30.4204 34.5162C30.1745 34.5967 29.7801 34.4823 29.7801 34.4823L28.8515 33.5833V33.5876Z"/><path stroke="#002140" stroke-linecap="round" stroke-linejoin="round" stroke-width=".999" d="M29.2295 32.5615L29.5687 32.4088C29.8782 32.2689 30.2429 32.3707 30.4337 32.6505L31.0231 33.5028C31.2775 33.8717 31.1248 34.3848 30.7093 34.5544L30.3743 34.6901C30.069 34.813 29.7213 34.7113 29.5347 34.4441L28.9454 33.6046C28.6909 33.2441 28.8309 32.7396 29.2337 32.5572L29.2295 32.5615Z"/></svg>

<svg xmlns="http://www.w3.org/2000/svg" width="68" height="68" fill="none" viewBox="0 0 68 68">
  <path fill="#FEE45E" d="m33.622 39.562-6.102 2.765 1.209 4.16 5.177-.828z"/>
  <path fill="#002140" d="M28.529 44.732c.167-1.152-.471-2.198-1.426-2.337s-1.865.682-2.032 1.834.47 2.198 1.426 2.337c.954.139 1.864-.682 2.032-1.834"/>
  <path stroke="#002140" stroke-linecap="round" stroke-linejoin="round" stroke-width=".999" d="M28.411 44.572c.168-1.152-.47-2.198-1.425-2.337s-1.865.683-2.032 1.834.47 2.198 1.425 2.337 1.865-.682 2.032-1.834m-1.744-2.398 5.253-1.67"/>
  <path fill="#FEE45E" d="M32.264 22.419c.042.118 1.654 3.159 1.654 3.159l3.765-1.213-1.505-3.592zm.416 15.744s-9.295 2.934-12.539 1.276-3.773-3.477-3.773-3.477l6.903-6.132 29.753-10.545s5.69-1.276 9.019 1.145c3.333 2.421 1.446 4.8-1.806 6.47-3.253 1.667-13.489 5.653-13.489 5.653l-14.073 5.61z"/>
  <path fill="#FED607" d="m36.623 24.836-5.495-8.002.61-.941 2.706-.916 11.075 6.39zm-13.776 5.177s-2.879 4.295-5.054 5.923-2.442 1.272-2.442 1.272L3.608 29.17l3.952-2.4 15.29 3.24z"/>
  <path fill="#FED607" d="m21.94 37.124-8.426 6.78-3.435.216 5.275-6.92s4.524-1.721 6.585-.076m11.106.975s6.551-7.25 14.552-6.174l-.3.708-17.898 19.191-4.635.28 8.281-14.01z"/>
  <path fill="#002140" d="M55.055 26.074s-1.319-.747-1.751-1.323c-.433-.577-1.395-2.142-1.395-2.142l1.675-.907s2.998-1.823 2.93-2.188c-.068-.364.39-.496.39-.496s4.113.87 4.452 1.238c.343.365-.967 2.315-.967 2.315s-4.55 3.54-5.338 3.507z"/>
  <path stroke="#002140" stroke-linecap="round" stroke-linejoin="round" stroke-width=".999" d="m47.851 32.298-18.457 19.5a.37.37 0 0 1-.212.111l-3.833.547a.357.357 0 0 1-.36-.534l8.378-14.523a.4.4 0 0 1 .06-.076c.53-.513 6.868-6.475 14.204-5.627a.36.36 0 0 1 .22.606z"/>
  <path stroke="#002140" stroke-linecap="round" stroke-linejoin="round" stroke-width=".999" d="M22.927 30.021s27.515-9.969 28.825-10.469 8.896-2.018 12.012 2.434c2.01 3.617-9.49 7.853-9.49 7.853l-6.041 2.095m-11.487-7.119-5.563-7.442a.924.924 0 0 1 .42-1.42l2.433-.895a.93.93 0 0 1 .797.076l10.728 6.483M33.032 37.62s-7.268 3.977-13.459 1.62m-3.943-2.036s3.15-2.357 6.428-.102l-8.226 6.772-4.244.615z"/>
  <path stroke="#002140" stroke-linecap="round" stroke-linejoin="round" stroke-width=".999" d="M22.927 30.022s-.767 2.857-7.293 7.182m-.004 0-12.123-7.89 3.74-2.587 15.68 3.294"/>
  <path fill="#002140" d="M33.549 25.109c.14-1.156-.523-2.187-1.48-2.303-.959-.116-1.849.726-1.989 1.881s.523 2.187 1.48 2.303c.958.116 1.848-.726 1.988-1.881"/>
  <path stroke="#002140" stroke-linecap="round" stroke-linejoin="round" stroke-width=".999" d="M33.203 24.952c.14-1.155-.523-2.186-1.48-2.302-.959-.116-1.849.726-1.989 1.881s.522 2.187 1.48 2.303 1.848-.726 1.989-1.882m-2.49-2.058 3.375-1.298m22.677-2.679s-.178.962-1.446 1.772c-1.013.644-2.756 1.437-3.413 1.73a.225.225 0 0 0-.09.343l2.452 3.278c.059.08.16.114.258.08 1.005-.356 6.496-2.459 6.912-5.85"/>
  <path fill="#002140" d="M44.829 27.499s-.064-.34.157-.683c.22-.344 1.06-.433 1.06-.433l.534.78.369.904s-.305.28-.551.36-.64-.034-.64-.034l-.93-.899z"/>
  <path stroke="#002140" stroke-linecap="round" stroke-linejoin="round" stroke-width=".999" d="m45.21 26.477.339-.153a.7.7 0 0 1 .865.242l.59.852a.705.705 0 0 1-.315 1.051l-.335.136a.7.7 0 0 1-.84-.246l-.589-.84a.705.705 0 0 1 .289-1.047z"/>
  <path fill="#002140" d="M40.49 29.038s-.064-.34.157-.683c.22-.343 1.06-.432 1.06-.432l.534.78.369.903s-.306.28-.551.36-.64-.034-.64-.034l-.93-.898z"/>
  <path stroke="#002140" stroke-linecap="round" stroke-linejoin="round" stroke-width=".999" d="m40.867 28.016.34-.153a.7.7 0 0 1 .864.242l.59.852a.705.705 0 0 1-.314 1.052l-.335.135a.7.7 0 0 1-.84-.245l-.589-.84a.705.705 0 0 1 .289-1.047z"/>
  <path fill="#002140" d="M36.504 30.496s-.064-.34.157-.683c.22-.343 1.06-.432 1.06-.432l.534.78.37.903s-.306.28-.552.36c-.246.081-.64-.033-.64-.033l-.929-.9z"/>
  <path stroke="#002140" stroke-linecap="round" stroke-linejoin="round" stroke-width=".999" d="m36.882 29.47.34-.153a.7.7 0 0 1 .864.242l.59.852a.705.705 0 0 1-.314 1.052l-.335.136a.7.7 0 0 1-.84-.246l-.59-.84a.705.705 0 0 1 .29-1.047z"/>
  <path fill="#002140" d="M32.608 32.07s-.063-.34.157-.683 1.06-.433 1.06-.433l.534.78.37.904s-.306.28-.552.36-.64-.034-.64-.034l-.929-.899z"/>
  <path stroke="#002140" stroke-linecap="round" stroke-linejoin="round" stroke-width=".999" d="m32.985 31.048.34-.153a.7.7 0 0 1 .864.242l.59.852a.705.705 0 0 1-.314 1.052l-.335.135a.7.7 0 0 1-.84-.246l-.589-.84a.705.705 0 0 1 .288-1.047z"/>
  <path fill="#002140" d="M28.852 33.588s-.064-.34.156-.683 1.06-.433 1.06-.433l.535.78.369.904s-.306.28-.552.36-.64-.034-.64-.034l-.928-.899z"/>
  <path stroke="#002140" stroke-linecap="round" stroke-linejoin="round" stroke-width=".999" d="m29.23 32.562.339-.153a.7.7 0 0 1 .865.242l.59.852a.705.705 0 0 1-.315 1.051l-.335.136a.7.7 0 0 1-.84-.246l-.589-.84a.705.705 0 0 1 .289-1.047z"/>
</svg>
